web/packages/design/src/ResourceIcon/assets/dealhub.svg

<svg width="72" height="72" viewBox="0 0 72 72" fill="none" xmlns="http://www.w3.org/2000/svg">
<g clip-path="url(#clip0_15936_7178)">
<path d="M55.8815 56.0608C61.1898 50.8613 64.249 43.7885 64.4028 36.3596H72C71.8993 45.8412 68.0622 54.9002 61.3218 61.5694C54.5814 68.2386 45.4821 71.9794 36 71.9794C26.5179 71.9794 17.4186 68.2386 10.6782 61.5694C3.93783 54.9002 0.100659 45.8412 0 36.3596V36.0289C0.000251098 30.8176 1.13159 25.6685 3.31588 20.9371C5.50017 16.2057 8.68538 12.0047 12.6515 8.62434C16.6177 5.24395 21.2703 2.76468 26.2881 1.35773C31.3058 -0.049219 36.5692 -0.350322 41.7146 0.475215V8.1982C37.5871 7.3578 33.3244 7.44509 29.2348 8.45377C25.1451 9.46245 21.3307 11.3673 18.0674 14.0306C14.804 16.6939 12.1732 20.0491 10.3653 23.8536C8.55736 27.658 7.61741 31.8167 7.61343 36.0289V36.3596C7.76725 43.7885 10.8264 50.8613 16.1347 56.0608C21.443 61.2603 28.5776 64.1724 36.0081 64.1724C43.4386 64.1724 50.5733 61.2603 55.8815 56.0608Z" fill="#F24D4A"/>
<path d="M27.328 44.9359C29.6441 47.2024 32.7535 48.4748 35.9937 48.4823C39.0871 48.4761 42.0674 47.3172 44.3524 45.2314C46.6414 43.142 48.0678 40.2731 48.3519 37.1869H48.4047V2.64551C50.904 3.63364 53.2762 4.91742 55.4704 6.46947V36.3268C55.4005 41.2531 53.467 45.9701 50.0591 49.5282C46.6512 53.0863 42.0219 55.2213 37.1032 55.5034H37.0281C36.6832 55.5223 36.3377 55.5318 35.9915 55.5318H35.8272C30.7388 55.4831 25.871 53.4475 22.2627 49.8594C18.6545 46.2712 16.5917 41.4148 16.5146 36.3268V36.0529C16.5227 30.8967 18.572 25.9534 22.2146 22.3039C25.8573 18.6544 30.7967 16.5958 35.9529 16.5781H35.9996C37.8113 16.5793 39.614 16.834 41.3552 17.3348V24.8732C39.6842 24.07 37.8536 23.654 35.9996 23.656H35.6629C35.6257 23.656 35.5886 23.6555 35.5521 23.6551C35.4809 23.6542 35.4121 23.6533 35.3504 23.656C35.2921 23.6585 35.2346 23.6634 35.1725 23.6687C35.1351 23.6719 35.0961 23.6753 35.0543 23.6783C35.0267 23.6803 34.9974 23.6823 34.9676 23.6844C34.8769 23.6906 34.7822 23.697 34.7195 23.7047C34.6902 23.7083 34.6608 23.7134 34.6315 23.7184C34.5777 23.7278 34.5238 23.7371 34.47 23.7371C34.4317 23.7421 34.3936 23.7468 34.3556 23.7516C34.2689 23.7624 34.1828 23.7731 34.0968 23.7858L33.8939 23.8203C33.851 23.8282 33.8075 23.8359 33.7636 23.8437C33.6725 23.8598 33.5799 23.8762 33.4882 23.8954L33.3299 23.9319C33.1818 23.9643 33.0337 23.9968 32.8877 24.0353L32.7518 24.0739C32.7121 24.0852 32.6722 24.0963 32.6323 24.1074C32.5215 24.1384 32.4103 24.1694 32.3014 24.2037L32.1614 24.2504C32.1348 24.2592 32.1083 24.268 32.0818 24.2768C31.9629 24.3163 31.8451 24.3553 31.7273 24.3985L31.5529 24.4674C31.5184 24.4809 31.484 24.4942 31.4496 24.5075C31.3544 24.5443 31.2598 24.5808 31.1674 24.6196L30.9159 24.7332C30.8727 24.7538 30.8258 24.7744 30.7779 24.7954C30.7266 24.8179 30.6741 24.8409 30.6237 24.8651C30.5095 24.9204 30.3982 24.9788 30.2861 25.0376C30.2668 25.0477 30.2475 25.0578 30.2282 25.0679L30.1064 25.1409C28.1382 26.2065 26.4942 27.7838 25.348 29.7062C24.2018 31.6286 23.596 33.8249 23.5946 36.0631V36.3369C23.6692 39.5806 25.009 42.6666 27.328 44.9359Z" fill="#F24D4A"/>
</g>
<defs>
<clipPath id="clip0_15936_7178">
<rect width="72" height="72" fill="white" transform="translate(0 0.000488281)"/>
</clipPath>
</defs>
</svg>

<svg xmlns="http://www.w3.org/2000/svg" width="72" height="72" fill="none" viewBox="0 0 72 72"><g fill="#f24d4a" clip-path="url(#a)"><path d="M55.882 56.06a28.4 28.4 0 0 0 8.52-19.7H72a36.002 36.002 0 0 1-72 0v-.331A36.01 36.01 0 0 1 41.715.475v7.723a28.43 28.43 0 0 0-34.102 27.83v.332a28.4 28.4 0 0 0 48.269 19.7"/><path d="M27.328 44.936a12.43 12.43 0 0 0 8.666 3.546 12.435 12.435 0 0 0 12.358-11.295h.053V2.646a33.7 33.7 0 0 1 7.065 3.823v29.858a19.485 19.485 0 0 1-18.367 19.176h-.075q-.517.03-1.036.029h-.165a19.5 19.5 0 0 1-19.312-19.205v-.274a19.506 19.506 0 0 1 19.438-19.475H36c1.811.001 3.614.256 5.355.757v7.538A12.3 12.3 0 0 0 36 23.656h-.447q-.108-.004-.203 0l-.178.013-.118.01-.086.005c-.091.007-.186.013-.249.02l-.087.014a1 1 0 0 1-.162.02l-.114.014q-.13.015-.26.034l-.202.034-.13.024a9 9 0 0 0-.276.051l-.158.037q-.223.047-.442.103l-.136.039-.12.033q-.166.046-.33.097l-.14.046-.08.027q-.179.058-.355.121l-.174.07-.103.04q-.144.054-.283.112l-.251.113-.138.062q-.078.034-.154.07-.17.084-.338.173l-.058.03-.122.073a12.43 12.43 0 0 0-6.511 10.922v.274a12.43 12.43 0 0 0 3.733 8.599"/></g><defs><clipPath id="a"><path fill="#fff" d="M0 0h72v72H0z"/></clipPath></defs></svg>
